packages/webapp/public/images/template-logos/microsoft-teams.svg

<svg width="62" height="62" viewBox="0 0 62 62" fill="none" xmlns="http://www.w3.org/2000/svg">
<g clip-path="url(#clip0_496_1329)">
<path d="M39.6904 26.3496H51.0557C52.1295 26.3496 52.9999 27.22 52.9999 28.2938V38.6461C52.9999 42.5924 49.8008 45.7915 45.8545 45.7915H45.8207C41.8744 45.792 38.6749 42.5934 38.6743 38.6471C38.6743 38.6467 38.6743 38.6464 38.6743 38.6461V27.3657C38.6743 26.8045 39.1293 26.3496 39.6904 26.3496Z" fill="#5059C9"/>
<path d="M47.372 24.3021C49.9151 24.3021 51.9766 22.2405 51.9766 19.6974C51.9766 17.1543 49.9151 15.0928 47.372 15.0928C44.8289 15.0928 42.7673 17.1543 42.7673 19.6974C42.7673 22.2405 44.8289 24.3021 47.372 24.3021Z" fill="#5059C9"/>
<path d="M33.0464 24.3023C36.7198 24.3023 39.6976 21.3245 39.6976 17.6512C39.6976 13.9778 36.7198 11 33.0464 11C29.3731 11 26.3953 13.9778 26.3953 17.6512C26.3953 21.3245 29.3731 24.3023 33.0464 24.3023Z" fill="#7B83EB"/>
<path d="M41.915 26.3496H23.1546C22.0936 26.3759 21.2543 27.2563 21.2789 28.3173V40.1247C21.1308 46.4916 26.168 51.7752 32.5348 51.931C38.9015 51.7752 43.9387 46.4916 43.7906 40.1247V28.3173C43.8152 27.2563 42.9759 26.3759 41.915 26.3496Z" fill="#7B83EB"/>
<path opacity="0.1" d="M33.5581 26.3496V42.8957C33.553 43.6544 33.0932 44.3361 32.3916 44.625C32.1682 44.7195 31.9281 44.7682 31.6855 44.7682H22.1794C22.0464 44.4305 21.9236 44.0929 21.8213 43.745C21.4631 42.5708 21.2804 41.3502 21.279 40.1226V28.3143C21.2544 27.255 22.0923 26.3759 23.1515 26.3496H33.5581Z" fill="black"/>
<path opacity="0.2" d="M32.5348 26.3496V43.9189C32.5348 44.1615 32.4861 44.4016 32.3916 44.625C32.1027 45.3266 31.421 45.7864 30.6623 45.7915H22.6604C22.4864 45.4538 22.3227 45.1161 22.1794 44.7682C22.0362 44.4203 21.9236 44.0929 21.8213 43.745C21.4631 42.5708 21.2804 41.3502 21.279 40.1226V28.3143C21.2544 27.255 22.0923 26.3759 23.1515 26.3496H32.5348Z" fill="black"/>
<path opacity="0.2" d="M32.5348 26.3496V41.8724C32.527 42.9034 31.6932 43.7372 30.6622 43.745H21.8213C21.4631 42.5708 21.2804 41.3502 21.279 40.1226V28.3143C21.2544 27.255 22.0923 26.3759 23.1515 26.3496H32.5348Z" fill="black"/>
<path opacity="0.2" d="M31.5115 26.3496V41.8724C31.5037 42.9034 30.6699 43.7372 29.639 43.745H21.8213C21.4631 42.5708 21.2804 41.3502 21.279 40.1226V28.3143C21.2544 27.255 22.0923 26.3759 23.1515 26.3496H31.5115Z" fill="black"/>
<path opacity="0.1" d="M33.5581 21.0591V24.2823C33.3841 24.2925 33.2204 24.3028 33.0465 24.3028C32.8725 24.3028 32.7088 24.2926 32.5348 24.2823C32.1894 24.2594 31.8469 24.2046 31.5116 24.1186C29.4395 23.6279 27.7276 22.1747 26.9069 20.2098C26.7657 19.8798 26.6561 19.5372 26.5795 19.1865H31.6855C32.7181 19.1904 33.5542 20.0265 33.5581 21.0591Z" fill="black"/>
<path opacity="0.2" d="M32.5349 22.0835V24.2835C32.1895 24.2606 31.8469 24.2058 31.5116 24.1198C29.4395 23.6291 27.7276 22.1759 26.907 20.2109H30.6623C31.6949 20.2148 32.531 21.0509 32.5349 22.0835Z" fill="black"/>
<path opacity="0.2" d="M32.5349 22.0835V24.2835C32.1895 24.2606 31.8469 24.2058 31.5116 24.1198C29.4395 23.6291 27.7276 22.1759 26.907 20.2109H30.6623C31.6949 20.2148 32.531 21.0509 32.5349 22.0835Z" fill="black"/>
<path opacity="0.2" d="M31.5116 22.0835V24.1198C29.4395 23.6291 27.7276 22.1759 26.907 20.2109H29.6391C30.6716 20.2149 31.5077 21.0509 31.5116 22.0835Z" fill="black"/>
<path d="M10.8756 20.2109H29.636C30.6719 20.2109 31.5116 21.0507 31.5116 22.0866V40.8469C31.5116 41.8828 30.6718 42.7225 29.636 42.7225H10.8756C9.83973 42.7225 9 41.8828 9 40.8469V22.0866C9 21.0507 9.83975 20.2109 10.8756 20.2109Z" fill="url(#paint0_linear_496_1329)"/>
<path d="M25.1921 27.3472H21.4418V37.5593H19.0525V27.3472H15.3197V25.3662H25.1921V27.3472Z" fill="white"/>
</g>
<defs>
<linearGradient id="paint0_linear_496_1329" x1="12.9107" y1="18.7454" x2="27.6009" y2="44.1881" gradientUnits="userSpaceOnUse">
<stop stop-color="#5A62C3"/>
<stop offset="0.5" stop-color="#4D55BD"/>
<stop offset="1" stop-color="#3940AB"/>
</linearGradient>
<clipPath id="clip0_496_1329">
<rect width="44" height="40.9302" fill="white" transform="translate(9 11)"/>
</clipPath>
</defs>
</svg>

<svg xmlns="http://www.w3.org/2000/svg" xmlns:xlink="http://www.w3.org/1999/xlink" width="62" height="62" fill="none"><g clip-path="url(#B)"><g fill="#5059c9"><path d="M39.69 26.35h11.365c1.074 0 1.944.87 1.944 1.944v10.352c0 3.946-3.199 7.145-7.145 7.145h-.034c-3.946.001-7.146-3.198-7.146-7.144V27.366c0-.561.455-1.016 1.016-1.016zm7.682-2.048c2.543 0 4.605-2.062 4.605-4.605s-2.061-4.605-4.605-4.605-4.605 2.061-4.605 4.605 2.062 4.605 4.605 4.605z"/></g><g fill="#7b83eb"><path d="M33.046 24.302c3.673 0 6.651-2.978 6.651-6.651a6.65 6.65 0 1 0-13.302 0c0 3.673 2.978 6.651 6.651 6.651zm8.869 2.048h-18.76c-1.061.026-1.9.907-1.876 1.968v11.807c-.148 6.367 4.889 11.651 11.256 11.806 6.367-.156 11.404-5.439 11.256-11.806V28.317c.025-1.061-.815-1.941-1.876-1.968z"/></g><g fill="#000"><path opacity=".1" d="M33.558 26.35v16.546c-.005.759-.465 1.44-1.167 1.729a1.81 1.81 0 0 1-.706.143h-9.506l-.358-1.023c-.358-1.174-.541-2.395-.542-3.622V28.314a1.92 1.92 0 0 1 1.872-1.965h10.407z"/><path opacity=".2" d="M32.535 26.35v17.569a1.81 1.81 0 0 1-.143.706c-.289.702-.971 1.161-1.729 1.166H22.66l-.481-1.023c-.143-.348-.256-.675-.358-1.023-.358-1.174-.541-2.395-.542-3.622V28.314a1.92 1.92 0 0 1 1.872-1.965h9.383z"/><path opacity=".2" d="M32.535 26.35v15.523c-.008 1.031-.842 1.865-1.873 1.873h-8.841c-.358-1.174-.541-2.395-.542-3.622V28.314a1.92 1.92 0 0 1 1.872-1.965h9.383z"/><path opacity=".2" d="M31.512 26.35v15.523c-.008 1.031-.842 1.865-1.873 1.873h-7.818c-.358-1.174-.541-2.395-.542-3.622V28.314a1.92 1.92 0 0 1 1.872-1.965h8.36z"/><path opacity=".1" d="M33.558 21.059v3.223l-.512.021c-.174 0-.338-.01-.512-.021-.345-.023-.688-.078-1.023-.164a6.65 6.65 0 0 1-4.605-3.909c-.141-.33-.251-.673-.327-1.023h5.106a1.88 1.88 0 0 1 1.873 1.873z"/><use xlink:href="#C" opacity=".2"/><use xlink:href="#C" opacity=".2"/><path opacity=".2" d="M31.512 22.084v2.036a6.65 6.65 0 0 1-4.605-3.909h2.732a1.88 1.88 0 0 1 1.873 1.873z"/></g><path d="M10.876 20.211h18.76c1.036 0 1.876.84 1.876 1.876v18.76c0 1.036-.84 1.876-1.876 1.876h-18.76C9.84 42.723 9 41.883 9 40.847v-18.76c0-1.036.84-1.876 1.876-1.876z" fill="url(#A)"/><path d="M25.192 27.347h-3.75v10.212h-2.389V27.347H15.32v-1.981h9.872v1.981z" fill="#fff"/></g><defs><linearGradient id="A" x1="12.911" y1="18.745" x2="27.601" y2="44.188" gradientUnits="userSpaceOnUse"><stop stop-color="#5a62c3"/><stop offset=".5" stop-color="#4d55bd"/><stop offset="1" stop-color="#3940ab"/></linearGradient><clipPath id="B"><path fill="#fff" transform="translate(9 11)" d="M0 0h44v40.93H0z"/></clipPath><path id="C" d="M32.535 22.084v2.2c-.345-.023-.688-.078-1.023-.164a6.65 6.65 0 0 1-4.605-3.909h3.755a1.88 1.88 0 0 1 1.873 1.873z"/></defs></svg>
